X:0409
T:Highway to Edinburgh
T:For the Violin.
M:6/8
L:1/8
Q:3/8=120
I: :: ::
Z:Jack Campin * www.campin.me.uk * 2009
K:E Minor
D     | B,EE E2D|EGA B2e|dBA (G/A/B).A|GED D3 |\
        B,EE E2D|EGA Bed|Bge  dBA     |GEE E2::
(B/d/)|Te2g  dBG|ABd e2g|dBA (G/A/B).A|GED D2
D     | EGD  EGD|EGA Bed|Bge  dBA     |GEE E2:|
<end>
<start>
